X: 33348
T: Queen Of Mayo, The
R: jig
M: 6/8
K: Gmajor
B3 BAG|EFG ABc|dgg efg|fed cAF|
DBB BAG|EFG ABc|dge fed|1 cAF G2A:|2 cAF G2z||
|:Ad^c dfa|agf g3|A^ce efg|gfe f2e|
d^cd a^ga|bag gfg|age A^ce|1 ed^c d2B:|2 ed^c d2=c||

